X: 10985
T: Drunken Hussar, The
R: jig
M: 6/8
K: Gmajor
|:G2g G3|G2g G3|G2A BAG|GFG AFD|
G2g G3|G2g G3|G2A BAG|DEF G3:|
|:G2G GAB|d2g d2g|d2g d2c|BcA B2G|
G2G GAB|d2g d2g|d2g d2c|BcA G3:|

